!!! OTL: Berkowitz536
!!! Chapter: 1
!!! Section: IV
!!! Page: 134
!!! Mode: 
!!! Encoder: DJB
**kern
*staff1
*I"Piano
=1-
*clefG2
*k[]
*C:
*M3/4
4c/
4e/
4g/
=2
4e-/
4g/
4b-\
=3
4g-/
4b-\
4dd-\
=4
8cc\L
8b\J
4a/
8g/L
8f/J
=5
4e/
4g/
4c/
=6
4g/
4b-\
4e-/
=7
4b-\
4dd-\
4g-/
=8
2.cc\
=9
4ee-\
4cc\
4a-/
=10
4cc\
4a/
4f/
=11
4a/
4f#/
4d/
=12
!!linebreak:original
8e/L
8f#/J
2g#/
=13
4dd-\
4b-\
4g-/
=14
4b-\
4g-/
4e-/
=15
2g/
4e/
=16
2.c/
==
*-
